src/assets/images/socials/discord.svg

<svg width="27" height="21" viewBox="0 0 27 21" fill="none" xmlns="http://www.w3.org/2000/svg">
<path d="M6.82003 11.9099C6.77623 12.7258 7.05632 13.526 7.59939 14.1365C8.14246 14.747 8.90458 15.1184 9.72003 15.1699C10.5337 15.1158 11.2933 14.7433 11.8342 14.1331C12.3752 13.5229 12.6539 12.7242 12.61 11.9099C12.654 11.0946 12.3756 10.2947 11.8349 9.68289C11.2942 9.07109 10.5346 8.69647 9.72003 8.63989C8.90372 8.69396 8.14158 9.0675 7.59876 9.67957C7.05594 10.2917 6.77615 11.093 6.82003 11.9099ZM10.61 11.9099C10.61 12.5899 10.2 13.1699 9.72003 13.1699C9.24003 13.1699 8.82003 12.5899 8.82003 11.9099C8.82003 11.2299 9.23003 10.6399 9.72003 10.6399C10.21 10.6399 10.61 11.2199 10.61 11.9099ZM16.28 8.63989C15.4655 8.69647 14.7059 9.07109 14.1652 9.68289C13.6245 10.2947 13.3461 11.0946 13.39 11.9099C13.3461 12.7242 13.6249 13.5229 14.1658 14.1331C14.7068 14.7433 15.4664 15.1158 16.28 15.1699C17.0955 15.1184 17.8576 14.747 18.4007 14.1365C18.9437 13.526 19.2238 12.7258 19.18 11.9099C19.2239 11.093 18.9441 10.2917 18.4013 9.67957C17.8585 9.0675 17.0963 8.69396 16.28 8.63989ZM16.28 13.1699C15.8 13.1699 15.39 12.5899 15.39 11.9099C15.39 11.2299 15.8 10.6399 16.28 10.6399C16.76 10.6399 17.18 11.2199 17.18 11.9099C17.18 12.5999 16.77 13.1699 16.28 13.1699Z" fill="#7171B2"/>
<path d="M23.63 5.02994L23.56 4.93994C23.56 4.93994 23.56 4.86994 23.56 4.83994C21.8242 2.73171 19.4287 1.26976 16.76 0.689937C16.6307 0.652578 16.4952 0.6417 16.3616 0.657958C16.228 0.674215 16.0991 0.717272 15.9825 0.784549C15.866 0.851826 15.7642 0.941938 15.6833 1.04949C15.6024 1.15704 15.544 1.27981 15.5117 1.41045C15.4794 1.5411 15.4738 1.67692 15.4952 1.80979C15.5166 1.94265 15.5646 2.06983 15.6364 2.1837C15.7081 2.29756 15.8021 2.39578 15.9127 2.47246C16.0233 2.54913 16.1482 2.6027 16.28 2.62994C18.4868 3.10306 20.4741 4.29542 21.93 6.01994C23.2788 9.11551 23.9831 12.4533 24 15.8299C22.6073 17.1289 20.8727 18.0032 19 18.3499V17.9199C19 17.9199 19 17.8699 19 17.8399C20.2328 17.3617 21.3885 16.7046 22.43 15.8899C22.6382 15.7242 22.772 15.4825 22.802 15.2181C22.8321 14.9536 22.7558 14.6881 22.59 14.4799C22.4243 14.2717 22.1826 14.1379 21.9182 14.1079C21.6537 14.0779 21.3882 14.1542 21.18 14.3199C18.8327 16.1 15.9443 17.0181 13 16.9199C10.0795 17.002 7.21847 16.0847 4.89003 14.3199C4.78694 14.2379 4.6687 14.1769 4.54205 14.1405C4.4154 14.1041 4.28282 14.0931 4.15189 14.1079C3.88746 14.1379 3.64579 14.2717 3.48003 14.4799C3.31427 14.6881 3.238 14.9536 3.26801 15.2181C3.29801 15.4825 3.43183 15.7242 3.64003 15.8899C4.67441 16.7044 5.82349 17.3615 7.05003 17.8399V18.3499C5.1774 18.0032 3.44273 17.1289 2.05003 15.8299C2.07322 12.4519 2.78435 9.11406 4.14003 6.01994C5.59598 4.29542 7.58325 3.10306 9.79003 2.62994C10.0384 2.55818 10.2493 2.39303 10.3785 2.16913C10.5077 1.94524 10.5452 1.68 10.4832 1.42906C10.4211 1.17812 10.2642 0.960966 10.0455 0.823164C9.82677 0.685361 9.56319 0.637614 9.31003 0.689937C6.64139 1.26976 4.24589 2.73171 2.51003 4.83994C2.51003 4.83994 2.51003 4.90994 2.51003 4.93994L2.44003 5.02994C0.500028 9.02994 0.280028 12.6799 0.0700276 16.1699C0.0609834 16.3115 0.0821646 16.4534 0.132164 16.5861C0.182164 16.7189 0.259838 16.8395 0.360028 16.9399C2.39245 19.0114 5.10668 20.2761 8.00003 20.4999C8.26237 20.4988 8.51377 20.3947 8.70003 20.2099C8.79452 20.1173 8.86969 20.0069 8.92118 19.885C8.97268 19.7631 8.99948 19.6322 9.00003 19.4999V18.4999C11.6312 19.1155 14.3689 19.1155 17 18.4999V19.4999C17.0006 19.6322 17.0274 19.7631 17.0789 19.885C17.1304 20.0069 17.2055 20.1173 17.3 20.2099C17.4863 20.3947 17.7377 20.4988 18 20.4999C20.9218 20.3133 23.6746 19.065 25.74 16.9899C25.8402 16.8895 25.9179 16.7689 25.9679 16.6361C26.0179 16.5034 26.0391 16.3615 26.03 16.2199C25.79 12.6799 25.57 9.06994 23.63 5.02994Z" fill="#7171B2"/>
<path d="M20.49 6.22001C20.5507 6.10319 20.5877 5.97554 20.5989 5.84438C20.6101 5.71323 20.5953 5.58115 20.5553 5.45572C20.5154 5.3303 20.4511 5.214 20.3661 5.11349C20.2811 5.01298 20.1771 4.93024 20.06 4.87001C17.8579 3.82035 15.4387 3.30636 13 3.37001C10.5613 3.30636 8.14216 3.82035 5.94001 4.87001C5.82297 4.93024 5.71896 5.01298 5.63396 5.11349C5.54896 5.214 5.48464 5.3303 5.44469 5.45572C5.40474 5.58115 5.38994 5.71323 5.40115 5.84438C5.41237 5.97554 5.44936 6.10319 5.51001 6.22001C5.63339 6.45468 5.84491 6.63074 6.09806 6.7095C6.35122 6.78826 6.62528 6.76326 6.86001 6.64001C8.77924 5.74247 10.8822 5.30749 13 5.37001C15.1178 5.30749 17.2208 5.74247 19.14 6.64001C19.2815 6.71641 19.4393 6.75757 19.6 6.76001C19.7836 6.7604 19.9638 6.71021 20.1208 6.61496C20.2778 6.5197 20.4055 6.38306 20.49 6.22001Z" fill="#7171B2"/>
</svg>

<svg width="27" height="21" fill="none" xmlns="http://www.w3.org/2000/svg"><path d="M6.82 11.91a3.1 3.1 0 0 0 2.9 3.26 3.1 3.1 0 0 0 2.89-3.26 3.11 3.11 0 0 0-2.89-3.27 3.11 3.11 0 0 0-2.9 3.27Zm3.79 0c0 .68-.41 1.26-.89 1.26-.48 0-.9-.58-.9-1.26s.41-1.27.9-1.27c.49 0 .89.58.89 1.27Zm5.67-3.27a3.11 3.11 0 0 0-2.89 3.27 3.1 3.1 0 0 0 2.89 3.26 3.1 3.1 0 0 0 2.9-3.26 3.11 3.11 0 0 0-2.9-3.27Zm0 4.53c-.48 0-.89-.58-.89-1.26s.41-1.27.89-1.27c.48 0 .9.58.9 1.27 0 .69-.41 1.26-.9 1.26Z" fill="#7171B2"/><path d="m23.63 5.03-.07-.09v-.1a12.15 12.15 0 0 0-6.8-4.15 1 1 0 1 0-.48 1.94 10.19 10.19 0 0 1 5.65 3.39A24.87 24.87 0 0 1 24 15.83a10 10 0 0 1-5 2.52v-.51a13.479 13.479 0 0 0 3.43-1.95 1.003 1.003 0 1 0-1.25-1.57 12.83 12.83 0 0 1-8.18 2.6 12.83 12.83 0 0 1-8.11-2.6 1.005 1.005 0 0 0-1.622.898c.03.264.164.506.372.672a13.358 13.358 0 0 0 3.41 1.95v.51a10 10 0 0 1-5-2.52 24.87 24.87 0 0 1 2.09-9.81 10.19 10.19 0 0 1 5.65-3.39A1 1 0 0 0 9.31.69a12.15 12.15 0 0 0-6.8 4.15v.1l-.07.09C.5 9.03.28 12.68.07 16.17a1 1 0 0 0 .29.77A12 12 0 0 0 8 20.5a1 1 0 0 0 .921-.615A1 1 0 0 0 9 19.5v-1c2.631.616 5.369.616 8 0v1a1.001 1.001 0 0 0 .3.71 1 1 0 0 0 .7.29 12 12 0 0 0 7.74-3.51 1 1 0 0 0 .29-.77c-.24-3.54-.46-7.15-2.4-11.19Z" fill="#7171B2"/><path d="M20.49 6.22a.999.999 0 0 0-.43-1.35A15.47 15.47 0 0 0 13 3.37a15.47 15.47 0 0 0-7.06 1.5 1 1 0 0 0-.43 1.35 1 1 0 0 0 1.35.42A13.55 13.55 0 0 1 13 5.37a13.55 13.55 0 0 1 6.14 1.27 1 1 0 0 0 .46.12 1 1 0 0 0 .89-.54Z" fill="#7171B2"/></svg>
